svg/600/outlined/signal_cellular_add.svg

<svg xmlns="http://www.w3.org/2000/svg" width="48" height="48" viewBox="0 -960 960 960"><path d="m65.869-65.869 828.827-828.827v496.827q-17.956-11.391-37.882-19.587t-41.336-11.631v-274.694L256.784-145.087h306.085q5.739 22.087 15.353 42.262 9.613 20.175 23.821 36.956H65.869ZM733.782-48.91v-120h-120v-79.784h120v-120h79.219v120h120v79.784h-120v120h-79.219Zm-476.998-96.176L815.478-703.78Q713.957-602.825 640.696-529.282q-73.261 73.544-135.152 135.435l-120.05 120.05-128.71 128.71Z"/></svg>

<svg xmlns="http://www.w3.org/2000/svg" width="48" height="48" viewBox="0 -960 960 960"><path d="M65.87-65.87 894.7-894.7v496.83q-17.96-11.39-37.89-19.59-19.92-8.19-41.33-11.63v-274.69l-558.7 558.69h306.09q5.74 22.09 15.35 42.26 9.62 20.18 23.82 36.96H65.87Zm667.91 16.96v-120h-120v-79.79h120v-120H813v120h120v79.79H813v120h-79.22Zm-477-96.18 558.7-558.69Q713.96-602.82 640.7-529.28T505.54-393.85L385.49-273.8q-58.15 58.16-128.71 128.71Z"/></svg>
